X:1
T: Foxie Mary
C:
R:Reel
Q: 232
K:D
M:4/4
L:1/8
|:F1/2E1/2|D2 FA AF AB|de fd g2 fe|de dB AF AB|de fd ed Bd|
D2 FA AF AB|de fd g2 fe|de dB A2 gb|af eg fd d:|
|:f|a2 ag f2 fe|de fd BA FA|dg g2 bg g2|a2 af gf ed|
dF F2 AF AB|de fd g2 fe|de dB A2 gb|af dg fd d:|
